**harm	**harte	**timestamp	**phrase	**leadinstrument	**kern
*M4/4	*M4/4	*	*	*	*
*A:	*A:	*	*	*	*A:
1r;	N	0	.	r	1r;
=1	=1	=1	=1	=1	=1
*>I_fadein	*>I_fadein	*>I_fadein	*>I_fadein	*>I_fadein	*>I_fadein
1I	A:maj	10.974	newline	flute	1A 1cc# 1ee
=2	=2	=2	=2	=2	=2
*>C_intro	*>C_intro	*>C_intro	*>C_intro	*>C_intro	*>C_intro
1IV	D:maj	13.437	newline	flute	1D 1f# 1a
=3	=3	=3	=3	=3	=3
1IV	D:maj	15.875	.	flute	1D 1f# 1a
=4	=4	=4	=4	=4	=4
1I	A:maj	18.313	.	flute	1A 1cc# 1ee
=5	=5	=5	=5	=5	=5
1I	A:maj	20.751	.	flute	1A 1cc# 1ee
=6	=6	=6	=6	=6	=6
1I	A:maj	23.189	.	flute	1A 1cc# 1ee
=7	=7	=7	=7	=7	=7
1I	A:maj	25.627	.	flute	1A 1cc# 1ee
=8	=8	=8	=8	=8	=8
*>A_verse	*>A_verse	*>A_verse	*>A_verse	*>A_verse	*>A_verse
1I	A:maj	28.065	newline	voice	1A 1cc# 1ee
=9	=9	=9	=9	=9	=9
1I	A:maj	30.467	.	voice	1A 1cc# 1ee
=10	=10	=10	=10	=10	=10
1I	A:maj	32.869	.	voice	1A 1cc# 1ee
=11	=11	=11	=11	=11	=11
1vi	F#:min	35.271	.	voice	1F# 1a 1cc#
=12	=12	=12	=12	=12	=12
1vi	F#:min	37.673	.	voice	1F# 1a 1cc#
=13	=13	=13	=13	=13	=13
1ii	B:min	40.075	.	voice	1B 1dd 1ff#
=14	=14	=14	=14	=14	=14
1ii	B:min	42.477	.	voice	1B 1dd 1ff#
=15	=15	=15	=15	=15	=15
1ii	B:min	44.879	.	voice	1B 1dd 1ff#
=16	=16	=16	=16	=16	=16
1V	E:maj	47.281	.	voice	1E 1g# 1b
=17	=17	=17	=17	=17	=17
1V	E:maj	49.683	.	voice	1E 1g# 1b
=18	=18	=18	=18	=18	=18
*M2/4	*M2/4	*M2/4	*M2/4	*M2/4	*M2/4
2V	E:maj	52.085	.	voice	2E 2g# 2b
=19	=19	=19	=19	=19	=19
*M4/4	*M4/4	*M4/4	*M4/4	*M4/4	*M4/4
1I	A:maj	53.286	.	voice	1A 1cc# 1ee
=20	=20	=20	=20	=20	=20
1I	A:maj	55.688	.	voice	1A 1cc# 1ee
=21	=21	=21	=21	=21	=21
1I	A:maj	58.09	newline	voice	1A 1cc# 1ee
=22	=22	=22	=22	=22	=22
1I	A:maj	60.419	.	voice	1A 1cc# 1ee
=23	=23	=23	=23	=23	=23
1I	A:maj	62.747	.	voice	1A 1cc# 1ee
=24	=24	=24	=24	=24	=24
1vi	F#:min	65.076	.	voice	1F# 1a 1cc#
=25	=25	=25	=25	=25	=25
1vi	F#:min	67.405	.	voice	1F# 1a 1cc#
=26	=26	=26	=26	=26	=26
1ii	B:min	69.734	.	voice	1B 1dd 1ff#
=27	=27	=27	=27	=27	=27
1ii	B:min	72.063	.	voice	1B 1dd 1ff#
=28	=28	=28	=28	=28	=28
1ii	B:min	74.392	.	voice	1B 1dd 1ff#
=29	=29	=29	=29	=29	=29
1V	E:maj	76.72	.	voice	1E 1g# 1b
=30	=30	=30	=30	=30	=30
1V	E:maj	79.049	.	voice	1E 1g# 1b
=31	=31	=31	=31	=31	=31
*M2/4	*M2/4	*M2/4	*M2/4	*M2/4	*M2/4
2V	E:maj	81.378	.	voice	2E 2g# 2b
=32	=32	=32	=32	=32	=32
*M4/4	*M4/4	*M4/4	*M4/4	*M4/4	*M4/4
1I	A:maj	82.542	.	voice	1A 1cc# 1ee
=33	=33	=33	=33	=33	=33
1I	A:maj	84.871	.	voice	1A 1cc# 1ee
=34	=34	=34	=34	=34	=34
*>B_chorus	*>B_chorus	*>B_chorus	*>B_chorus	*>B_chorus	*>B_chorus
1V	E:maj	87.2	newline	voice	1E 1g# 1b
=35	=35	=35	=35	=35	=35
1V	E:maj	89.382	.	voice	1E 1g# 1b
=36	=36	=36	=36	=36	=36
1I	A:maj	91.564	.	voice	1A 1cc# 1ee
=37	=37	=37	=37	=37	=37
1I	A:maj	93.745	.	voice	1A 1cc# 1ee
=38	=38	=38	=38	=38	=38
1V	E:maj	95.927	.	voice	1E 1g# 1b
=39	=39	=39	=39	=39	=39
1V	E:maj	98.109	.	voice	1E 1g# 1b
=40	=40	=40	=40	=40	=40
1I	A:maj	100.291	.	voice	1A 1cc# 1ee
=41	=41	=41	=41	=41	=41
1Id	A:maj/b7	102.473	.	voice	1a 1cc# 1ee
=42	=42	=42	=42	=42	=42
1VI	F#:maj	104.655	.	voice	1F# 1a# 1cc#
=43	=43	=43	=43	=43	=43
1II	B:maj	106.836	.	voice	1B 1dd# 1ff#
=44	=44	=44	=44	=44	=44
1II	B:maj	109.018	.	voice	1B 1dd# 1ff#
=45	=45	=45	=45	=45	=45
1V	E:maj	111.2	newline	voice	1E 1g# 1b
=46	=46	=46	=46	=46	=46
1V	E:maj	113.509	.	voice	1E 1g# 1b
=47	=47	=47	=47	=47	=47
1I	A:maj	115.817	.	voice	1A 1cc# 1ee
=48	=48	=48	=48	=48	=48
1I	A:maj	118.126	.	voice	1A 1cc# 1ee
=49	=49	=49	=49	=49	=49
1V	E:maj	120.435	.	voice	1E 1g# 1b
=50	=50	=50	=50	=50	=50
1V	E:maj	122.743	.	voice	1E 1g# 1b
=51	=51	=51	=51	=51	=51
1IV	D:maj	125.052	.	voice	1D 1f# 1a
=52	=52	=52	=52	=52	=52
1IV	D:maj	127.361	.	voice	1D 1f# 1a
=53	=53	=53	=53	=53	=53
1I	A:maj	129.67	.	voice	1A 1cc# 1ee
=54	=54	=54	=54	=54	=54
*M2/4	*M2/4	*M2/4	*M2/4	*M2/4	*M2/4
2I	A:maj	131.978	.	voice	2A 2cc# 2ee
=55	=55	=55	=55	=55	=55
*M4/4	*M4/4	*M4/4	*M4/4	*M4/4	*M4/4
1V	E:maj	133.133	.	voice	1E 1g# 1b
=56	=56	=56	=56	=56	=56
1V	E:maj	135.441	.	voice	1E 1g# 1b
=57	=57	=57	=57	=57	=57
1I	A:maj	137.75	.	voice	1A 1cc# 1ee
=58	=58	=58	=58	=58	=58
1I	A:maj	140.059	.	voice	1A 1cc# 1ee
=59	=59	=59	=59	=59	=59
*>A_verse	*>A_verse	*>A_verse	*>A_verse	*>A_verse	*>A_verse
1I	A:maj	142.367	newline	voice	1A 1cc# 1ee
=60	=60	=60	=60	=60	=60
1I	A:maj	144.684	.	voice	1A 1cc# 1ee
=61	=61	=61	=61	=61	=61
1I	A:maj	147.001	.	voice	1A 1cc# 1ee
=62	=62	=62	=62	=62	=62
1vi	F#:min	149.318	.	voice	1F# 1a 1cc#
=63	=63	=63	=63	=63	=63
1vi	F#:min	151.634	.	voice	1F# 1a 1cc#
=64	=64	=64	=64	=64	=64
1ii	B:min	153.951	.	voice	1B 1dd 1ff#
=65	=65	=65	=65	=65	=65
1ii	B:min	156.268	.	voice	1B 1dd 1ff#
=66	=66	=66	=66	=66	=66
1ii	B:min	158.585	.	voice	1B 1dd 1ff#
=67	=67	=67	=67	=67	=67
1V	E:maj	160.901	.	voice	1E 1g# 1b
=68	=68	=68	=68	=68	=68
1V	E:maj	163.218	.	voice	1E 1g# 1b
=69	=69	=69	=69	=69	=69
*M2/4	*M2/4	*M2/4	*M2/4	*M2/4	*M2/4
2V	E:maj	165.535	.	voice	2E 2g# 2b
=70	=70	=70	=70	=70	=70
*M4/4	*M4/4	*M4/4	*M4/4	*M4/4	*M4/4
1I	A:maj	166.693	.	voice	1A 1cc# 1ee
=71	=71	=71	=71	=71	=71
1I	A:maj	169.01	.	voice	1A 1cc# 1ee
=72	=72	=72	=72	=72	=72
*>B_chorus	*>B_chorus	*>B_chorus	*>B_chorus	*>B_chorus	*>B_chorus
1V	E:maj	171.327	newline	voice	1E 1g# 1b
=73	=73	=73	=73	=73	=73
1V	E:maj	173.502	.	voice	1E 1g# 1b
=74	=74	=74	=74	=74	=74
1I	A:maj	175.677	.	voice	1A 1cc# 1ee
=75	=75	=75	=75	=75	=75
1I	A:maj	177.851	.	voice	1A 1cc# 1ee
=76	=76	=76	=76	=76	=76
1V	E:maj	180.026	.	voice	1E 1g# 1b
=77	=77	=77	=77	=77	=77
1V	E:maj	182.201	.	voice	1E 1g# 1b
=78	=78	=78	=78	=78	=78
1I	A:maj	184.376	.	voice	1A 1cc# 1ee
=79	=79	=79	=79	=79	=79
1Id	A:maj/b7	186.551	.	voice	1a 1cc# 1ee
=80	=80	=80	=80	=80	=80
1VI	F#:maj	188.726	.	voice	1F# 1a# 1cc#
=81	=81	=81	=81	=81	=81
1II	B:maj	190.9	.	voice	1B 1dd# 1ff#
=82	=82	=82	=82	=82	=82
1II	B:maj	193.075	.	voice	1B 1dd# 1ff#
=83	=83	=83	=83	=83	=83
1V	E:maj	195.25	newline	voice	1E 1g# 1b
=84	=84	=84	=84	=84	=84
1V	E:maj	197.399	.	voice	1E 1g# 1b
=85	=85	=85	=85	=85	=85
1I	A:maj	199.548	.	voice	1A 1cc# 1ee
=86	=86	=86	=86	=86	=86
1I	A:maj	201.697	.	voice	1A 1cc# 1ee
=87	=87	=87	=87	=87	=87
1V	E:maj	203.847	newline	voice	1E 1g# 1b
=88	=88	=88	=88	=88	=88
1V	E:maj	205.981	.	voice	1E 1g# 1b
=89	=89	=89	=89	=89	=89
1I	A:maj	208.116	.	voice	1A 1cc# 1ee
=90	=90	=90	=90	=90	=90
1I	A:maj	210.251	.	voice	1A 1cc# 1ee
=91	=91	=91	=91	=91	=91
1V	E:maj	212.386	.	voice	1E 1g# 1b
=92	=92	=92	=92	=92	=92
1V	E:maj	214.521	.	voice	1E 1g# 1b
=93	=93	=93	=93	=93	=93
1I	A:maj	216.656	.	voice	1A 1cc# 1ee
=94	=94	=94	=94	=94	=94
1Id	A:maj/b7	218.791	.	voice	1a 1cc# 1ee
=95	=95	=95	=95	=95	=95
1VI	F#:maj	220.926	.	voice	1F# 1a# 1cc#
=96	=96	=96	=96	=96	=96
1II	B:maj	223.061	.	voice	1B 1dd# 1ff#
=97	=97	=97	=97	=97	=97
1II	B:maj	225.196	.	voice	1B 1dd# 1ff#
=98	=98	=98	=98	=98	=98
*>E_fadeout	*>E_fadeout	*>E_fadeout	*>E_fadeout	*>E_fadeout	*>E_fadeout
1V	E:maj	227.331	newline	voice	1E 1g# 1b
=99	=99	=99	=99	=99	=99
1V	E:maj	229.458	.	voice	1E 1g# 1b
=100	=100	=100	=100	=100	=100
1I	A:maj	231.585	.	voice	1A 1cc# 1ee
=101	=101	=101	=101	=101	=101
1I	A:maj	233.712	.	voice	1A 1cc# 1ee
1r;	N	251.527	.	r	1r;
1r;	N	255.559	.	r	1r;
*-	*-	*-	*-	*-	*-
!!!OTL: Fernando
!!!COC: Abba
!!!BillboardChartDate: 1976/10/09
!!!BillboardPeak: 13
!!!BillboardWeeksOnChart: 16
!!!SampleTargetRank: 26
!!!SampleActualRank: 24
!!!SampleID#: 0218
!!!RDF**harmony: **recip + pitch class of root + harmonic quality
!!!RDF**harte: Chris Harte's syntax, used by MIREX
!!!RDF**phrase: newline = linebreak in original McGill transcription
!!!RDF**timestamp: McGill audio timestamp in seconds
!!!RDF**leadinstrument: original McGill primary instrumentation annotation
!!!RDT: 2017/01/12/
!!!ENC: Nathaniel Condit-Schultz
!!!EST: Awating manual error checking and editing.
